X:1
T:Tarragona, 87.87 D
T:Tarragona, 87.87 D
T:Ira David Sankey, 1887
T:Public Domain Courtesy of the Cyber Hymnal™
C:Ira David Sankey, 1887
Z:Public Domain
Z:Courtesy of the Cyber Hymnal™
%%score ( 1 2 ) ( 3 4 )
L:1/8
Q:1/4=140
M:6/4
K:Bb
V:1 treble 
V:2 treble 
V:3 bass 
V:4 bass 
V:1
 [DF]4 [^C=E]2 [DF]4 [=C_E]2 | ([B,D]2 [DF]2) [FB]2 [FB]4 [EA]2 | [CE]4 [=B,D]2 [CE]4 C2 | %3
 (F2 =E2) [C_E]2 [B,D]6 | [DF]4 [^C=E]2 [DF]4 [=C_E]2 | [B,D]2 [DF]2 [DB]2 [Fd]4 [DB]2 | %6
 (G2 A2) [=CB]2 F4 [FB]2 | c4 [EA]2 [DB]6 | [Ec]4 [DB]2 [EA]4 [EF]2 | d4 [Fc]2 [FB]4 [DF]2 | %10
 G4 [=EG]2 A4 [^FA]2 | B4 [=EB]2 (c4 ^c2) | d4 [=E^c]2 [Fd]4 [F=c]2 | [FB]4 [^FA]2 [Gc]4 [GB]2 | %14
 (G2 A2) [EB]2 F4 [DB]2 | B4 [EA]2 !fermata![DB]6 |] %16
V:2
 x12 | x12 | x10 C2 | C4 x8 | x12 | x12 | ^C4 (D2 F2) x4 | (F2 E2) x8 | x12 | (D2 F2) x8 | %10
 (=E2 ^F2) (F2 G2) x4 | (G2 F2) _E6 x2 | (D2 F2) x8 | x12 | E4 F4 x4 | (F2 E2) x8 |] %16
V:3
 [B,,F,]4 [B,,G,]2 [B,,B,]4 [A,,F,]2 | (F,2 B,2) [B,,D]2 [F,D]4 [F,C]2 | %2
 [F,A,]4 F,2 [F,A,]4 [F,,A,]2 | ([F,,A,]2 [G,,B,]2) [A,,F,]2 [B,,F,]6 | %4
 [B,,B,]4 [B,,G,]2 [B,,B,]4 [A,,F,]2 | [B,,F,]4 [B,,F,]2 [B,,B,]4 [B,,B,]2 | %6
 (B,2 A,2) [_E,G,]2 B,4 [B,,D]2 | (D2 C2) [F,,F,]2 !fermata![B,,F,]6 | %8
 [F,A,]4 [F,B,]2 [F,C]4 [F,A,]2 | (B,2 F,2) [E,A,]2 [D,B,]4 [B,,B,]2 | %10
 ([E,B,]2 [D,=B,]2) [C,C]2 ([F,C]2 [E,^C]2) [D,D]2 | (D2 _D2) (CB,) [F,A,]6 | %12
 (B,2 F,2) [B,,G,]2 [B,,F,]4 [E,A,]2 | [D,B,]4 [D,C]2 [E,B,]4 [E,B,]2 | %14
 (B,2 A,2) [E,G,]2 [D,B,]4 [G,B,]2 | (D2 C2) [F,,F,]2 !fermata![B,,F,]6 |] %16
V:4
 x12 | B,,4 x8 | x4 F,2 x6 | x12 | x12 | x12 | =E,4 (F,2 D,2) x4 | F,4 x8 | x12 | B,,4 x8 | x12 | %11
 E,4 G,2 x6 | B,,4 x8 | x12 | E,4 x8 | F,4 x8 |] %16

